svgs/light/oil-can-drip.svg

<svg xmlns="http://www.w3.org/2000/svg" viewBox="0 0 640 512"><!--! Font Awesome Pro 6.5.1 by @fontawesome - https://fontawesome.com License - https://fontawesome.com/license (Commercial License) Copyright 2023 Fonticons, Inc. --><path d="M352 80c0 8.8-7.2 16-16 16l-64 0v64h96.9c9.9 0 19.7 2.3 28.6 6.8L448 192l167-35.8c18.1-3.9 30.7 17.6 18.4 31.5L451.1 394.3c-12.1 13.8-29.6 21.7-48 21.7H144c-26.5 0-48-21.5-48-48V340L31.1 315.7C12.4 308.7 0 290.7 0 270.7V208c0-26.5 21.5-48 48-48H96h32H240V96l-64 0c-8.8 0-16-7.2-16-16s7.2-16 16-16H336c8.8 0 16 7.2 16 16zM454.7 223.3c-7.1 1.5-14.5 .6-21-2.7l-50.5-25.2c-4.4-2.2-9.3-3.4-14.3-3.4H128V317.8 352v16c0 8.8 7.2 16 16 16H403.1c9.2 0 17.9-3.9 24-10.8L583.8 195.6 454.7 223.3zM96 192H48c-8.8 0-16 7.2-16 16v62.7c0 6.7 4.1 12.6 10.4 15L96 305.8V192zM608 400l0-.1 0-.2c0-.1 0-.3 0-.6c-.1-.5-.2-1.2-.3-2.1c-.3-1.8-.9-4.2-1.7-7c-1.7-5.7-4.2-12.5-7.4-20c-2-4.7-4.2-9.5-6.5-14.3c-2.3 4.8-4.4 9.6-6.5 14.3c-7.1 16.6-9.5 26.7-9.5 29.9c0 8.8 7.2 16 16 16c7 0 10.7-2.1 12.3-3.5c1.2-1.1 3.7-4 3.7-12.5zm32 0c0 32-21.5 48-48 48s-48-21.5-48-48c0-21 20.6-62.6 34.9-88.8c5.8-10.6 20.5-10.6 26.3 0C619.4 337.4 640 379 640 400z"/></svg>

<svg xmlns="http://www.w3.org/2000/svg" viewBox="0 0 640 512"><!--! Font Awesome Pro 6.1.1 by @fontawesome - https://fontawesome.com License - https://fontawesome.com/license (Commercial License) Copyright 2022 Fonticons, Inc. --><path d="M352 80C352 88.84 344.8 96 336 96H272V160H368.9C378.8 160 388.6 162.3 397.5 166.8L448 192L615 156.2C633.1 152.3 645.7 173.8 633.5 187.7L451.1 394.3C438.1 408.1 421.5 416 403.1 416H144C117.5 416 96 394.5 96 368V340L31.15 315.7C12.41 308.7 0 290.7 0 270.7V208C0 181.5 21.49 160 48 160H240V96H176C167.2 96 160 88.84 160 80C160 71.16 167.2 64 176 64H336C344.8 64 352 71.16 352 80V80zM443.7 225.6L383.2 195.4C378.8 193.2 373.9 192 368.9 192H128V368C128 376.8 135.2 384 144 384H403.1C412.3 384 421 380.1 427.1 373.2L583.8 195.6L443.7 225.6zM48 192C39.16 192 32 199.2 32 208V270.7C32 277.4 36.14 283.4 42.38 285.7L96 305.8V192H48zM640 400C640 432 618.5 448 592 448C565.5 448 544 426.5 544 400C544 379 564.6 337.4 578.9 311.2C584.6 300.6 599.4 300.6 605.1 311.2C619.4 337.4 640 379 640 400zM608 399.9L607.1 399.8C607.1 399.6 607.1 399.5 607.9 399.2C607.9 398.7 607.8 397.1 607.6 397.1C607.3 395.2 606.7 392.9 605.9 390.1C604.2 384.4 601.6 377.6 598.5 370.1C596.5 365.4 594.3 360.6 592 355.8C589.7 360.6 587.6 365.4 585.5 370.1C578.5 386.7 576 396.8 576 400C576 408.8 583.2 416 592 416C598.1 416 602.7 413.9 604.3 412.5C605.4 411.4 608 408.4 608 400L608 399.9z"/></svg>
